Adwaita++/actions/22/audio-volume-medium.svg

<svg fill="none" height="22" viewBox="0 0 22 22" width="22" xmlns="http://www.w3.org/2000/svg">
  <g fill="#444">
    <path d="m11 4-3.50006 3.6666h-2.62964s-.8703 1.39307-.8703 3.5014c0 2.1083.87036 2.9986.87036 2.9986h2.62964l3.5001 3.6667z"/>
    <path d="m13.707 7.62106-.707.70703.3535.35355c.5628.56274.8789 1.32526.8789 2.12106s-.3161 1.5584-.8789 2.1211l-.3535.3535.707.707.3535-.3535c.7501-.75 1.1719-1.7674 1.1719-2.8281 0-1.06067-.4218-2.07809-1.1719-2.82809z"/>
    <path d="m15.9395 5.5-.7071.70703.3535.35349c1.1254 1.12536 1.7579 2.65069 1.7579 4.24218 0 1.5915-.6325 3.1169-1.7579 4.2422l-.3535.3535.7071.707.3535-.3534c1.3126-1.3127 2.0508-3.093 2.0508-4.9493 0-1.85632-.7382-3.63659-2.0508-4.94921z" opacity=".5"/>
  </g>
</svg>

<svg xmlns="http://www.w3.org/2000/svg" fill="none" width="22" height="22" viewBox="0 0 22 22">
 <path fill="#444" d="M11 4L7.49994 7.6666H4.8703C4.8703 7.6666 4 9.05967 4 11.168C4 13.2763 4.87036 14.1666 4.87036 14.1666H7.5L11.0001 17.8333L11 4Z"/>
 <path fill="#444" d="M13.707 7.62106L13 8.32809L13.3535 8.68164C13.9163 9.24438 14.2324 10.0069 14.2324 10.8027C14.2324 11.5985 13.9163 12.3611 13.3535 12.9238L13 13.2773L13.707 13.9843L14.0605 13.6308C14.8106 12.8808 15.2324 11.8634 15.2324 10.8027C15.2324 9.74203 14.8106 8.72461 14.0605 7.97461L13.707 7.62106Z"/>
 <path fill="#444" opacity=".5" d="M15.9395 5.5L15.2324 6.20703L15.5859 6.56052C16.7113 7.68588 17.3438 9.21121 17.3438 10.8027C17.3438 12.3942 16.7113 13.9196 15.5859 15.0449L15.2324 15.3984L15.9395 16.1054L16.293 15.752C17.6056 14.4393 18.3438 12.659 18.3438 10.8027C18.3438 8.94638 17.6056 7.16611 16.293 5.85349L15.9395 5.5Z"/>
</svg>
